resc/svg/support.svg

<svg xmlns="http://www.w3.org/2000/svg" height="50px" version="1.1" viewBox="0 -3 512.00148 512" width="50px">
<g id="surface1">
<path d="M 460.339844 337.679688 L 495.367188 302.648438 C 517.542969 280.476562 517.546875 244.394531 495.371094 222.210938 C 488.566406 215.410156 480.394531 210.632812 471.664062 207.984375 C 478.804688 198.285156 482.667969 186.609375 482.667969 174.339844 C 482.667969 159.148438 476.75 144.863281 466.003906 134.121094 C 455.265625 123.378906 440.980469 117.460938 425.785156 117.460938 C 425.148438 117.460938 424.511719 117.472656 423.875 117.492188 C 424.371094 102.308594 418.839844 86.957031 407.273438 75.386719 C 395.707031 63.824219 380.335938 58.285156 365.175781 58.789062 C 365.195312 58.15625 365.207031 57.515625 365.207031 56.878906 C 365.207031 41.683594 359.289062 27.402344 348.546875 16.660156 C 326.375 -5.511719 290.292969 -5.515625 268.109375 16.660156 L 256 28.769531 L 243.894531 16.664062 C 233.152344 5.917969 218.867188 0 203.671875 0 C 188.480469 0 174.199219 5.917969 163.457031 16.65625 C 151.886719 28.226562 146.367188 43.582031 146.871094 58.777344 C 146.230469 58.753906 145.589844 58.730469 144.949219 58.730469 C 129.757812 58.730469 115.472656 64.644531 104.722656 75.386719 C 93.15625 86.960938 87.636719 102.316406 88.140625 117.507812 C 87.496094 117.484375 86.855469 117.460938 86.210938 117.460938 C 71.019531 117.460938 56.734375 123.378906 46 134.117188 C 35.253906 144.859375 29.335938 159.144531 29.335938 174.339844 C 29.335938 186.605469 33.195312 198.28125 40.339844 207.976562 C 31.480469 210.648438 23.359375 215.484375 16.628906 222.210938 C -5.492188 244.339844 -5.542969 280.308594 16.480469 302.492188 C 16.535156 302.550781 16.589844 302.605469 16.644531 302.664062 L 51.722656 337.734375 C 51.769531 337.785156 51.820312 337.835938 51.871094 337.886719 C 53.976562 339.996094 56.226562 341.90625 58.585938 343.636719 L 48.210938 354.011719 C 38.121094 364.101562 32.980469 377.847656 33.742188 392.71875 C 34.46875 406.996094 40.613281 420.597656 51.035156 431.019531 L 110.367188 490.355469 C 121.375 501.359375 135.828125 506.863281 150.285156 506.863281 C 164.742188 506.863281 179.199219 501.359375 190.203125 490.355469 L 217.78125 462.773438 C 230.363281 465.472656 243.179688 466.84375 256.007812 466.84375 C 268.824219 466.84375 281.644531 465.480469 294.222656 462.78125 L 321.792969 490.355469 C 332.800781 501.359375 347.253906 506.863281 361.710938 506.863281 C 376.164062 506.859375 390.625 501.359375 401.628906 490.355469 L 460.964844 431.019531 C 482.972656 409.011719 485.472656 375.699219 466.535156 356.757812 L 453.898438 344.121094 L 460.132812 337.882812 C 460.203125 337.816406 460.269531 337.75 460.339844 337.679688 Z M 185.164062 38.367188 C 190.109375 33.421875 196.683594 30.699219 203.675781 30.699219 C 210.667969 30.699219 217.242188 33.421875 222.1875 38.367188 L 269.167969 85.347656 C 279.375 95.558594 279.375 112.167969 269.167969 122.375 C 264.222656 127.320312 257.648438 130.042969 250.660156 130.042969 L 250.65625 130.042969 C 243.664062 130.039062 237.09375 127.320312 232.148438 122.375 C 232.140625 122.367188 232.132812 122.359375 232.128906 122.355469 L 185.175781 75.402344 C 185.136719 75.363281 185.101562 75.324219 185.058594 75.289062 C 174.957031 65.066406 174.992188 48.535156 185.164062 38.367188 Z M 126.363281 134.050781 C 116.226562 123.835938 116.25 107.277344 126.429688 97.097656 C 131.378906 92.152344 137.957031 89.429688 144.949219 89.429688 C 151.933594 89.429688 158.5 92.148438 163.445312 97.089844 C 163.449219 97.089844 163.453125 97.09375 163.453125 97.097656 C 163.472656 97.113281 163.488281 97.128906 163.503906 97.144531 L 210.429688 144.070312 C 210.457031 144.101562 210.492188 144.132812 210.523438 144.164062 L 222.183594 155.824219 C 227.128906 160.769531 229.855469 167.34375 229.855469 174.339844 C 229.855469 181.332031 227.132812 187.90625 222.1875 192.847656 C 217.242188 197.792969 210.667969 200.515625 203.675781 200.515625 C 196.683594 200.515625 190.109375 197.792969 185.167969 192.847656 C 185.105469 192.785156 185.042969 192.726562 184.980469 192.667969 L 173.46875 181.152344 C 173.453125 181.136719 173.4375 181.121094 173.421875 181.101562 L 126.433594 134.121094 C 126.433594 134.121094 126.429688 134.117188 126.429688 134.117188 C 126.40625 134.09375 126.382812 134.070312 126.363281 134.050781 Z M 67.710938 155.824219 C 72.652344 150.882812 79.222656 148.160156 86.214844 148.160156 C 93.207031 148.160156 99.78125 150.882812 104.726562 155.828125 L 151.761719 202.863281 C 161.917969 213.074219 161.898438 229.644531 151.714844 239.835938 C 146.769531 244.777344 140.191406 247.5 133.199219 247.5 C 126.207031 247.5 119.632812 244.777344 114.691406 239.832031 C 114.628906 239.773438 114.570312 239.710938 114.507812 239.652344 L 67.855469 193 C 67.804688 192.949219 67.753906 192.894531 67.707031 192.847656 C 62.761719 187.902344 60.039062 181.332031 60.039062 174.339844 C 60.035156 167.347656 62.761719 160.773438 67.710938 155.824219 Z M 38.496094 281.101562 C 38.4375 281.039062 38.378906 280.980469 38.320312 280.921875 C 28.132812 270.714844 28.140625 254.121094 38.339844 243.921875 C 43.285156 238.976562 49.859375 236.253906 56.851562 236.253906 C 63.84375 236.253906 70.421875 238.976562 75.367188 243.925781 L 110.601562 279.15625 C 120.808594 289.363281 120.808594 305.972656 110.605469 316.179688 C 105.660156 321.125 99.085938 323.847656 92.097656 323.847656 L 92.09375 323.847656 C 90.808594 323.847656 89.539062 323.753906 88.289062 323.574219 C 88.195312 323.554688 88.101562 323.542969 88.007812 323.527344 C 82.617188 322.6875 77.640625 320.195312 73.691406 316.292969 C 73.652344 316.25 73.609375 316.210938 73.570312 316.167969 Z M 216.949219 431.035156 C 216.816406 431 216.6875 430.984375 216.558594 430.953125 C 216.25 430.878906 215.945312 430.808594 215.636719 430.753906 C 215.410156 430.714844 215.183594 430.6875 214.953125 430.65625 C 214.699219 430.625 214.445312 430.59375 214.1875 430.574219 C 213.917969 430.550781 213.648438 430.539062 213.378906 430.535156 C 213.160156 430.527344 212.945312 430.523438 212.726562 430.527344 C 212.4375 430.53125 212.152344 430.546875 211.867188 430.570312 C 211.660156 430.585938 211.453125 430.601562 211.246094 430.625 C 210.964844 430.65625 210.6875 430.699219 210.410156 430.746094 C 210.191406 430.78125 209.976562 430.824219 209.757812 430.871094 C 209.503906 430.925781 209.253906 430.984375 209.003906 431.054688 C 208.765625 431.117188 208.527344 431.1875 208.289062 431.261719 C 208.066406 431.335938 207.851562 431.414062 207.632812 431.492188 C 207.378906 431.589844 207.125 431.6875 206.878906 431.796875 C 206.679688 431.882812 206.480469 431.976562 206.285156 432.070312 C 206.035156 432.191406 205.789062 432.316406 205.546875 432.453125 C 205.347656 432.5625 205.152344 432.679688 204.957031 432.800781 C 204.738281 432.9375 204.515625 433.074219 204.300781 433.222656 C 204.082031 433.375 203.867188 433.535156 203.65625 433.699219 C 203.480469 433.832031 203.308594 433.964844 203.136719 434.105469 C 202.886719 434.316406 202.648438 434.535156 202.414062 434.761719 C 202.324219 434.847656 202.226562 434.921875 202.136719 435.011719 L 168.5 468.648438 C 158.457031 478.691406 142.121094 478.691406 132.078125 468.648438 L 72.746094 409.316406 C 67.707031 404.277344 64.742188 397.828125 64.402344 391.152344 C 64.09375 385.070312 66.050781 379.589844 69.921875 375.722656 L 91.117188 354.523438 C 91.441406 354.527344 91.765625 354.546875 92.09375 354.546875 C 92.09375 354.546875 92.09375 354.546875 92.097656 354.546875 C 107.285156 354.546875 121.566406 348.628906 132.3125 337.886719 C 148.753906 321.441406 152.992188 297.355469 145.046875 276.957031 C 155.71875 274.707031 165.527344 269.433594 173.425781 261.542969 C 182.445312 252.515625 187.796875 241.183594 189.472656 229.425781 C 194.058594 230.601562 198.820312 231.214844 203.675781 231.214844 C 203.675781 231.214844 203.675781 231.214844 203.679688 231.214844 C 218.867188 231.214844 233.148438 225.300781 243.894531 214.558594 C 254.636719 203.816406 260.554688 189.53125 260.554688 174.339844 C 260.554688 169.492188 259.945312 164.738281 258.777344 160.160156 C 270.886719 158.441406 282.074219 152.886719 290.875 144.078125 C 313.050781 121.90625 313.050781 85.824219 290.878906 63.644531 L 277.707031 50.472656 L 289.816406 38.367188 C 300.027344 28.160156 316.636719 28.160156 326.839844 38.363281 C 331.785156 43.308594 334.507812 49.882812 334.507812 56.875 C 334.507812 63.867188 331.785156 70.441406 326.839844 75.386719 C 323.84375 78.382812 322.34375 82.3125 322.34375 86.242188 C 322.34375 90.167969 323.839844 94.097656 326.839844 97.09375 C 332.835938 103.089844 342.550781 103.089844 348.546875 97.09375 C 358.75 86.890625 375.359375 86.886719 385.570312 97.09375 C 395.777344 107.304688 395.773438 123.914062 385.566406 134.121094 C 382.570312 137.117188 381.070312 141.046875 381.070312 144.972656 C 381.070312 148.902344 382.566406 152.828125 385.566406 155.824219 C 391.5625 161.820312 401.277344 161.820312 407.273438 155.828125 C 412.21875 150.882812 418.796875 148.160156 425.789062 148.15625 C 432.78125 148.15625 439.355469 150.878906 444.296875 155.824219 C 449.246094 160.773438 451.96875 167.347656 451.96875 174.339844 C 451.96875 181.238281 449.316406 187.730469 444.496094 192.648438 C 444.425781 192.71875 444.355469 192.785156 444.289062 192.855469 L 422.277344 214.871094 C 416.796875 220.351562 416.261719 229.058594 421.03125 235.167969 L 421.820312 236.179688 C 426.578125 242.277344 435.132812 243.878906 441.773438 239.921875 C 452.066406 233.789062 465.179688 235.433594 473.664062 243.914062 C 483.871094 254.125 483.871094 270.734375 473.664062 280.941406 L 438.433594 316.167969 C 438.367188 316.238281 438.296875 316.308594 438.230469 316.378906 L 362.609375 392 C 324.667969 429.941406 268.855469 444.898438 216.949219 431.035156 Z M 444.832031 378.464844 C 451.5625 385.199219 448.960938 399.617188 439.261719 409.316406 L 379.925781 468.648438 C 369.882812 478.691406 353.546875 478.691406 343.503906 468.648438 L 327.175781 452.320312 C 348.398438 443.261719 367.835938 430.1875 384.316406 413.707031 L 432.191406 365.828125 Z M 444.832031 378.464844 " style=" stroke:none;fill-rule:nonzero;fill:rgb(0%,0%,0%);fill-opacity:1;" />
</g>
</svg>

<svg xmlns="http://www.w3.org/2000/svg" height="50" viewBox="0 -3 512.001 512" width="50"><path d="M460.34 337.68l35.027-35.032c22.176-22.171 22.18-58.253.004-80.437a56.828 56.828 0 0 0-23.707-14.227c7.14-9.699 11.004-21.375 11.004-33.644 0-15.192-5.918-29.477-16.664-40.219-10.738-10.742-25.024-16.66-40.219-16.66-.637 0-1.273.012-1.91.031.496-15.183-5.035-30.535-16.602-42.105-11.566-11.563-26.937-17.102-42.097-16.598.02-.633.031-1.273.031-1.91 0-15.195-5.918-29.477-16.66-40.219-22.172-22.172-58.254-22.176-80.438 0L256 28.77l-12.105-12.106C233.152 5.918 218.867 0 203.672 0c-15.192 0-29.473 5.918-40.215 16.656-11.57 11.57-17.09 26.926-16.586 42.121a52.581 52.581 0 0 0-1.922-.047c-15.191 0-29.476 5.915-40.226 16.657-11.567 11.574-17.086 26.93-16.582 42.12-.645-.023-1.286-.046-1.93-.046-15.191 0-29.477 5.918-40.211 16.656-10.746 10.742-16.664 25.028-16.664 40.223 0 12.265 3.86 23.941 11.004 33.637-8.86 2.671-16.98 7.507-23.711 14.234-22.121 22.129-22.172 58.098-.149 80.281.055.059.11.113.165.172l35.078 35.07c.047.051.097.102.148.153a57.596 57.596 0 0 0 6.715 5.75L48.21 354.012c-10.09 10.09-15.23 23.836-14.469 38.707.727 14.277 6.871 27.879 17.293 38.3l59.332 59.336c11.008 11.004 25.461 16.508 39.918 16.508s28.914-5.504 39.918-16.508l27.578-27.582a182.277 182.277 0 0 0 38.227 4.07c12.816 0 25.637-1.363 38.215-4.062l27.57 27.574c11.008 11.004 25.46 16.508 39.918 16.508 14.453-.004 28.914-5.504 39.918-16.508l59.336-59.335c22.008-22.008 24.508-55.32 5.57-74.262l-12.637-12.637 6.235-6.238c.07-.067.137-.133.207-.203zM185.164 38.367c4.945-4.945 11.52-7.668 18.512-7.668 6.992 0 13.566 2.723 18.512 7.668l46.98 46.98c10.207 10.212 10.207 26.821 0 37.028-4.945 4.945-11.52 7.668-18.508 7.668h-.004c-6.992-.004-13.562-2.723-18.508-7.668l-.02-.02-46.952-46.953c-.04-.039-.074-.078-.117-.113-10.102-10.223-10.067-26.754.105-36.922zm-58.8 95.684c-10.137-10.215-10.114-26.774.066-36.953 4.949-4.946 11.527-7.668 18.52-7.668 6.984 0 13.55 2.718 18.495 7.66.004 0 .008.004.008.008a.6.6 0 0 1 .05.047l46.927 46.925c.027.032.062.063.093.094l11.66 11.66c4.946 4.946 7.672 11.52 7.672 18.516 0 6.992-2.722 13.566-7.667 18.508-4.946 4.945-11.52 7.668-18.512 7.668-6.992 0-13.567-2.723-18.508-7.668a7.97 7.97 0 0 0-.188-.18l-11.511-11.516c-.016-.015-.031-.03-.047-.05l-46.988-46.98-.004-.005-.067-.066zM67.71 155.824c4.941-4.941 11.512-7.664 18.504-7.664 6.992 0 13.566 2.723 18.512 7.668l47.035 47.035c10.156 10.211 10.136 26.782-.047 36.973-4.945 4.941-11.524 7.664-18.516 7.664-6.992 0-13.566-2.723-18.508-7.668-.062-.059-.12-.121-.183-.18L67.855 193l-.148-.152c-4.945-4.946-7.668-11.516-7.668-18.508-.004-6.992 2.723-13.567 7.672-18.516zM38.496 281.102c-.059-.063-.117-.122-.176-.18-10.187-10.207-10.18-26.8.02-37 4.945-4.945 11.52-7.668 18.512-7.668 6.992 0 13.57 2.723 18.515 7.672l35.235 35.23c10.207 10.207 10.207 26.817.003 37.024-4.945 4.945-11.52 7.668-18.507 7.668h-.004a26.72 26.72 0 0 1-3.805-.274c-.094-.02-.187-.031-.281-.047a25.983 25.983 0 0 1-14.317-7.234c-.039-.043-.082-.082-.12-.125zM216.95 431.035c-.133-.035-.262-.05-.39-.082a15.536 15.536 0 0 0-.922-.2c-.227-.038-.453-.065-.684-.097a16.379 16.379 0 0 0-.766-.082 11.2 11.2 0 0 0-.808-.039c-.219-.008-.434-.012-.652-.008-.29.004-.575.02-.86.043-.207.016-.414.032-.62.055-.282.031-.56.074-.837.121a12.78 12.78 0 0 0-.652.125c-.254.055-.504.113-.754.184-.238.062-.477.132-.715.207-.223.074-.437.152-.656.23-.254.098-.508.195-.754.305a16.317 16.317 0 0 0-1.332.656c-.2.11-.395.227-.59.348-.219.137-.441.273-.656.422-.219.152-.434.312-.645.476-.176.133-.347.266-.52.406-.25.211-.488.43-.722.657-.09.086-.187.16-.277.25L168.5 468.648c-10.043 10.043-26.379 10.043-36.422 0l-59.332-59.332c-5.039-5.039-8.004-11.488-8.344-18.164-.308-6.082 1.649-11.562 5.52-15.43l21.195-21.199c.324.004.649.024.977.024h.004c15.187 0 29.468-5.918 40.215-16.66 16.44-16.446 20.68-40.532 12.734-60.93 10.672-2.25 20.48-7.523 28.379-15.414a56.603 56.603 0 0 0 16.047-32.117 57.136 57.136 0 0 0 14.203 1.789h.004c15.187 0 29.468-5.914 40.215-16.656 10.742-10.743 16.66-25.028 16.66-40.22 0-4.847-.61-9.6-1.778-14.179 12.11-1.719 23.297-7.273 32.098-16.082 22.176-22.172 22.176-58.254.004-80.433l-13.172-13.172 12.11-12.106c10.21-10.207 26.82-10.207 37.023-.004 4.945 4.946 7.668 11.52 7.668 18.512 0 6.992-2.723 13.566-7.668 18.512a15.306 15.306 0 0 0-4.496 10.855c0 3.926 1.496 7.856 4.496 10.852 5.996 5.996 15.71 5.996 21.707 0 10.203-10.203 26.812-10.207 37.023 0 10.207 10.21 10.203 26.82-.004 37.027a15.304 15.304 0 0 0-4.496 10.852 15.28 15.28 0 0 0 4.496 10.851c5.997 5.996 15.711 5.996 21.707.004 4.946-4.945 11.524-7.668 18.516-7.672 6.992 0 13.566 2.723 18.508 7.668 4.95 4.95 7.672 11.524 7.672 18.516 0 6.898-2.653 13.39-7.473 18.308-.07.07-.14.137-.207.207l-22.012 22.016c-5.48 5.48-6.015 14.188-1.246 20.297l.79 1.012c4.757 6.097 13.312 7.699 19.952 3.742 10.293-6.133 23.407-4.488 31.891 3.992 10.207 10.211 10.207 26.82 0 37.027l-35.23 35.227-.204.21L362.61 392c-37.942 37.941-93.755 52.898-145.66 39.035zm227.883-52.57c6.73 6.734 4.129 21.152-5.57 30.851l-59.336 59.332c-10.043 10.043-26.38 10.043-36.422 0l-16.328-16.328a181.708 181.708 0 0 0 57.14-38.613l47.875-47.879zm0 0"/></svg>
